Papirus/32x32/apps/bendy-and-the-ink-machine.svg

<svg width="32" height="32" version="1.1" xmlns="http://www.w3.org/2000/svg">
 <path d="m23 4v1.1113281c0 2.209139-3.134007 4-7 4s-7-1.790861-7-4v-1.1035156a14 14 0 0 0-7 12.103516 14 14 0 0 0 14 14 14 14 0 0 0 14-14 14 14 0 0 0-7-12.111328z" style="opacity:.2"/>
 <path d="m23 3v1.1113281c0 2.209139-3.134007 4-7 4s-7-1.790861-7-4v-1.1035156a14 14 0 0 0-7 12.103516 14 14 0 0 0 14 14 14 14 0 0 0 14-14 14 14 0 0 0-7-12.111328z" style="fill:#4f4f4f"/>
 <path d="m23 3v1a14 14 0 0 1 6.978516 11.697266 14 14 0 0 0 0.021484-0.585938 14 14 0 0 0-7-12.111328zm-14 0.0078125a14 14 0 0 0-7 12.103516 14 14 0 0 0 0.0175781 0.34375 14 14 0 0 1 6.9824219-11.447266v-1zm0 1.1035156v1c0 2.209139 3.134007 4 7 4s7-1.790861 7-4v-1c0 2.209139-3.134007 4-7 4s-7-1.790861-7-4z" style="fill:#ffffff;opacity:.1"/>
 <path d="m9.9999996 10c-1.9999996 0-5.7851556 3.589844-5.7851556 3.589844-0.140673 0.794395-0.212599 1.601279-0.214844 2.410156 0 7.179702 5.372583 13 12 13s12-5.820298 12-13c-0.0028-0.809596-0.07536-1.61714-0.216797-2.412109 0 0-3.783203-3.587891-5.783203-3.587891-3 1-6 3-6 3s-3-2-6.0000004-3zm0 4a3 4 0 0 1 3.0000004 4 3 4 0 0 1-1.117188 3.109375 3 0.5 0 0 0-1.8828124-0.109375 3 0.5 0 0 0-1.8828126 0.111328 3 4 0 0 1-1.117187-3.111328h2.9999996l-2.6816406-1.789062a3 4 0 0 1 2.6816406-2.210938zm12 0a3 4 0 0 1 3 4 3 4 0 0 1-1.117188 3.109375 3 0.5 0 0 0-1.882812-0.109375 3 0.5 0 0 0-1.882812 0.111328 3 4 0 0 1-1.117188-3.111328h3l-2.681641-1.789062a3 4 0 0 1 2.681641-2.210938zm-13 9a7 1 0 0 0 0.9999996 0.513672v1.851562c-0.5858376-0.469876-0.9999996-0.956498-0.9999996-1.365234zm14 0v1c0 0.408736-0.414162 0.895358-1 1.365234v-1.853515a7 1 0 0 0 1-0.511719zm-2 0.697266v2.302734h0.08984c-0.355022 0.216949-0.723682 0.413076-1.08984 0.585938v-2.767579a7 1 0 0 0 1-0.121093zm-10 2e-3a7 1 0 0 0 1 0.121093v2.765626c-0.366158-0.172909-0.734818-0.369036-1.089844-0.585985h0.08984zm2 0.203125a7 1 0 0 0 1 0.05469v3.042919h-1zm6 0v3.097609h-1v-3.042969a7 1 0 0 0 1-0.05469zm-4 0.08594a7 1 0 0 0 1 0.01167 7 1 0 0 0 1-0.0098v3.0098h-2z" style="opacity:.2"/>
 <path d="m10 9c-2 0-5.7851562 3.589844-5.7851562 3.589844-0.1406727 0.794395-0.2125992 1.601279-0.2148438 2.410156 0 7.179702 5.372583 13 12 13s12-5.820298 12-13c-0.0028-0.809596-0.07536-1.61714-0.216797-2.412109 0 0-3.783203-3.587891-5.783203-3.587891-3 1-6 3-6 3s-3-2-6-3zm0 4a3 4 0 0 1 3 4 3 4 0 0 1-1.117188 3.109375 3 0.5 0 0 0-1.882812-0.109375 3 0.5 0 0 0-1.8828125 0.111328 3 4 0 0 1-1.1171875-3.111328h3l-2.6816406-1.789062a3 4 0 0 1 2.6816406-2.210938zm12 0a3 4 0 0 1 3 4 3 4 0 0 1-1.117188 3.109375 3 0.5 0 0 0-1.882812-0.109375 3 0.5 0 0 0-1.882812 0.111328 3 4 0 0 1-1.117188-3.111328h3l-2.681641-1.789062a3 4 0 0 1 2.681641-2.210938zm-13 9a7 1 0 0 0 1 0.513672v1.851562c-0.5858377-0.469876-1-0.956498-1-1.365234v-1zm14 0v1c0 0.408736-0.414162 0.895358-1 1.365234v-1.853515a7 1 0 0 0 1-0.511719zm-2 0.697266v2.302734h0.089844c-0.355026 0.216949-0.723686 0.413076-1.089844 0.585938v-2.767579a7 1 0 0 0 1-0.121093zm-10 0.001953a7 1 0 0 0 1 0.121093v2.765626c-0.366158-0.172862-0.734818-0.368989-1.089844-0.585938h0.089844v-2.300781zm2 0.203125a7 1 0 0 0 1 0.054687v3.042969h-1v-3.097656zm6 0v3.097656h-1v-3.042969a7 1 0 0 0 1-0.054687zm-4 0.085937a7 1 0 0 0 1 0.011719 7 1 0 0 0 1-0.009766v3.009766h-2v-3.011719z" style="fill:#ffce66"/>
 <path d="m10 9c-2 0-5.7851562 3.589844-5.7851562 3.589844-0.1406731 0.794395-0.2125988 1.601279-0.2148438 2.410156 0 0.165398 0.0177854 0.326334 0.0234375 0.490234 0.0248996-0.637585 0.0803437-1.273209 0.1914063-1.90039 0 0 3.7851562-3.589844 5.7851562-3.589844 3 1 6 3 6 3s3-2 6-3c2 0 5.783203 3.587891 5.783203 3.587891 0.112123 0.630206 0.168247 1.269387 0.193359 1.910156 0.005833-0.166482 0.023438-0.330019 0.023438-0.498047-0.0028-0.809596-0.07536-1.61714-0.216797-2.412109 0 0-3.783203-3.587891-5.783203-3.587891-3 1-6 3-6 3s-3-2-6-3zm-2.3105469 6.458984a3 4 0 0 0-0.3710937 0.751954l1.1835937 0.789062h1.4980469l-2.3105469-1.541016zm12 0a3 4 0 0 0-0.371094 0.751954l1.183594 0.789062h1.498047l-2.310547-1.541016zm-6.716797 2.041016a3 4 0 0 1-1.089844 2.609375 3 0.5 0 0 0-1.882812-0.109375 3 0.5 0 0 0-1.8828125 0.111328 3 4 0 0 1-1.0175781-2.111328h-0.0996094a3 4 0 0 0 1.1171875 3.111328 3 0.5 0 0 1 1.8828125-0.111328 3 0.5 0 0 1 1.882812 0.109375 3 4 0 0 0 1.117188-3.109375 3 4 0 0 0-0.027344-0.5zm12 0a3 4 0 0 1-1.089844 2.609375 3 0.5 0 0 0-1.882812-0.109375 3 0.5 0 0 0-1.882812 0.111328 3 4 0 0 1-1.017579-2.111328h-0.099609a3 4 0 0 0 1.117188 3.111328 3 0.5 0 0 1 1.882812-0.111328 3 0.5 0 0 1 1.882812 0.109375 3 4 0 0 0 1.117188-3.109375 3 4 0 0 0-0.027344-0.5zm-15.972656 5.5v1c0 0.408736 0.414162 0.895358 1 1.365234v-1c-0.585838-0.469876-1-0.956498-1-1.365234zm14 0a7 1 0 0 1-0.009766 0.042969c-0.026559 0.399983-0.424024 0.868132-0.990234 1.322265v1c0.585838-0.469876 1-0.956498 1-1.365234v-1zm-12 2.048828v0.951172h-0.089844c0.355026 0.216949 0.723686 0.413029 1.089844 0.585938v-1c-0.335899-0.158621-0.672347-0.341261-1-0.53711zm10 0c-0.32765 0.195849-0.664101 0.378533-1 0.53711v1c0.366158-0.172862 0.734822-0.368989 1.089844-0.585938h-0.089844v-0.951172zm-8 0.951172v1h1v-1h-1zm2 0v1h2v-1h-2zm3 0v1h1v-1h-1z" style="fill:#ffffff;opacity:.2"/>
</svg>

<svg xmlns="http://www.w3.org/2000/svg" width="32" height="32" version="1.1">
 <path style="opacity:0.2" d="M 23,4 V 5.1113 C 23,7.3205 19.866,9.1113 16,9.1113 12.134,9.1113 9,7.3205 9,5.1113 V 4 C 4.6749,6.4971 2.0076,11.117 2,16.111 2,23.843 8.268,30 16,30 23.732,30 30,23.843 30,16.111 29.995,11.114 27.327,6.4985 23,4 Z"/>
 <path style="fill:#4f4f4f" d="M 23,3 V 4.1113 C 23,6.3205 19.866,8.1113 16,8.1113 12.134,8.1113 9,6.3205 9,4.1113 V 3 C 4.6749,5.4971 2.0076,10.117 2,15.111 2,22.843 8.268,29 16,29 23.732,29 30,22.843 30,15.111 29.995,10.114 27.327,5.4985 23,3 Z"/>
 <path style="opacity:0.1;fill:#ffffff" d="M 23,3 V 4 A 14,14 0 0 1 29.979,15.697 14,14 0 0 0 30,15.111 14,14 0 0 0 23,3 Z M 9,3.0078 A 14,14 0 0 0 2,15.111 14,14 0 0 0 2.0176,15.455 14,14 0 0 1 9,4.0078 Z M 9,4.1113 V 5.1113 C 9,7.3205 12.134,9.1113 16,9.1113 19.866,9.1113 23,7.3205 23,5.1113 V 4.1113 C 23,6.3205 19.866,8.1113 16,8.1113 12.134,8.1113 9,6.3205 9,4.1113 Z"/>
 <path style="opacity:0.2" d="M 10,10 C 8,10 4.2148,13.59 4.2148,13.59 4.0742,14.384 4.0022,15.191 4,16 4,23.18 9.3726,29 16,29 22.627,29 28,23.18 28,16 27.997,15.19 27.925,14.383 27.783,13.588 27.783,13.588 24,10 22,10 19,11 16,13 16,13 16,13 13,11 10,10 Z M 10,14 A 3,4 0 0 1 13,18 3,4 0 0 1 11.883,21.109 3,0.5 0 0 0 10,21 3,0.5 0 0 0 8.1172,21.111 3,4 0 0 1 7,18 H 10 L 7.3184,16.211 A 3,4 0 0 1 10,14 Z M 22,14 A 3,4 0 0 1 25,18 3,4 0 0 1 23.883,21.109 3,0.5 0 0 0 22,21 3,0.5 0 0 0 20.117,21.111 3,4 0 0 1 19,18 H 22 L 19.318,16.211 A 3,4 0 0 1 22,14 Z M 9,23 A 7,1 0 0 0 10,23.514 V 25.365 C 9.4142,24.895 9,24.409 9,24 Z M 23,23 V 24 C 23,24.409 22.586,24.895 22,25.365 V 23.512 A 7,1 0 0 0 23,23 Z M 21,23.697 V 26 H 21.09 C 20.735,26.217 20.366,26.413 20,26.586 V 23.818 A 7,1 0 0 0 21,23.697 Z M 11,23.699 A 7,1 0 0 0 12,23.82 V 26.586 C 11.634,26.413 11.265,26.217 10.91,26 H 11 Z M 13,23.902 A 7,1 0 0 0 14,23.957 V 27 H 13 Z M 19,23.902 V 27 H 18 V 23.957 A 7,1 0 0 0 19,23.902 Z M 15,23.988 A 7,1 0 0 0 16,24 7,1 0 0 0 17,23.99 V 27 H 15 Z"/>
 <path style="fill:#ffce66" d="M 10,9 C 8,9 4.2148,12.59 4.2148,12.59 4.0742,13.384 4.0022,14.191 4,15 4,22.18 9.3726,28 16,28 22.627,28 28,22.18 28,15 27.997,14.19 27.925,13.383 27.783,12.588 27.783,12.588 24,9 22,9 19,10 16,12 16,12 16,12 13,10 10,9 Z M 10,13 C 11.657,13 13,14.791 13,17 12.999,18.208 12.588,19.351 11.883,20.109 11.348,20.038 10.684,20 10,20 9.3148,20 8.6503,20.039 8.1172,20.111 7.4114,19.352 7.0007,18.209 7,17 H 10 L 7.3184,15.211 C 7.8263,13.857 8.8643,13.001 10,13 Z M 22,13 C 23.657,13 25,14.791 25,17 24.999,18.208 24.588,19.351 23.883,20.109 23.348,20.038 22.684,20 22,20 21.315,20 20.65,20.039 20.117,20.111 19.411,19.352 19.001,18.209 19,17 H 22 L 19.318,15.211 C 19.826,13.856 20.864,13.001 22,13 Z M 9,22 C 9.0014,22.181 9.347,22.359 10,22.514 V 24.365 C 9.4142,23.895 9,23.409 9,23 Z M 23,22 V 23 C 23,23.409 22.586,23.895 22,24.365 V 22.512 C 22.651,22.357 22.996,22.18 23,22 Z M 21,22.697 V 25.049 C 20.645,25.266 20.366,25.413 20,25.586 V 22.818 C 20.359,22.782 20.694,22.742 21,22.697 Z M 11,22.699 C 11.306,22.744 11.641,22.784 12,22.82 V 25.586 C 11.634,25.413 11.265,25.217 10.91,25 H 11 Z M 13,22.902 C 13.323,22.924 13.657,22.942 14,22.957 V 26 H 13 Z M 19,22.902 V 26 H 18 V 22.957 C 18.343,22.942 18.677,22.924 19,22.902 Z M 15,22.988 C 15.331,22.995 16.669,22.997 17,22.99 V 26 H 15 Z"/>
 <path style="opacity:0.2;fill:#ffffff" d="M 10,9 C 8,9 4.2148,12.59 4.2148,12.59 4.0742,13.384 4.0022,14.191 4,15 4,15.165 4.0178,15.326 4.0234,15.49 4.0483,14.853 4.1038,14.217 4.2148,13.59 4.2148,13.59 8,10 10,10 13,11 16,13 16,13 16,13 19,11 22,10 24,10 27.783,13.588 27.783,13.588 27.895,14.218 27.951,14.857 27.977,15.498 27.982,15.332 28,15.168 28,15 27.997,14.19 27.925,13.383 27.783,12.588 27.783,12.588 24,9 22,9 19,10 16,12 16,12 16,12 13,10 10,9 Z M 7.6895,15.459 C 7.545,15.69 7.4205,15.943 7.3184,16.211 L 8.502,17 H 10 Z M 19.689,15.459 C 19.545,15.69 19.42,15.943 19.318,16.211 L 20.502,17 H 22 Z M 12.973,17.5 C 12.876,18.525 12.485,19.46 11.883,20.109 11.348,20.038 10.684,20 10,20 9.3148,20 8.6503,20.039 8.1172,20.111 7.617,19.571 7.2602,18.831 7.0996,18 H 7 C 7.0007,19.209 7.4114,20.352 8.1172,21.111 8.6503,21.039 9.3148,21 10,21 10.684,21 11.348,21.038 11.883,21.109 12.588,20.351 12.999,19.208 13,18 12.999,17.833 12.99,17.666 12.973,17.5 Z M 24.973,17.5 C 24.876,18.525 24.485,19.46 23.883,20.109 23.348,20.038 22.684,20 22,20 21.315,20 20.65,20.039 20.117,20.111 19.617,19.571 19.26,18.831 19.1,18 H 19 C 19.001,19.209 19.411,20.352 20.117,21.111 20.65,21.039 21.315,21 22,21 22.684,21 23.348,21.038 23.883,21.109 24.588,20.351 24.999,19.208 25,18 24.999,17.833 24.99,17.666 24.973,17.5 Z M 9,23 V 24 C 9,24.409 9.4142,24.895 10,25.365 V 24.365 C 9.4142,23.895 9,23.409 9,23 Z M 23,23 C 22.999,23.014 22.995,23.029 22.99,23.043 22.964,23.443 22.566,23.911 22,24.365 V 25.365 C 22.586,24.895 23,24.409 23,24 Z M 11,25.049 V 26 H 10.91 C 11.265,26.217 11.634,26.413 12,26.586 V 25.586 C 11.664,25.427 11.328,25.245 11,25.049 Z M 21,25.049 C 20.672,25.245 20.336,25.427 20,25.586 V 26.586 C 20.366,26.413 20.645,26.268 21,26.051 Z M 13,26 V 27 H 14 V 26 Z M 15,26 V 27 H 17 V 26 Z M 18,26 V 27 H 19 V 26 Z"/>
</svg>
